X:088 
T:John Ryan's Radio Polka* 
F:file ID: cre.5/088john_r
B:CRE5.096 (gan ainm)
M:2/4
L:1/8
Q:120
R:polka
K:D
B|AF/A/ dB|AF D/E/D/E/|AF dB|AG F/E/F/G/|
AF/A/ de/g/|af df/a/|gf ed|cB c:|
|:e|fd fe/d/|ec de/d/|c>d ef|ga b>g|
fd fe/d/|ec dc/B/|ce/c/ AB/c/|dcd:|
"last time"dcd2-|d4||

%%%

